app/src/main/assets/symbols/food/drinkingtap.svg

<?xml version="1.0" encoding="UTF-8"?>
<svg version="1.1" viewBox="0 0 16 16" xmlns="http://www.w3.org/2000/svg" xmlns:cc="http://creativecommons.org/ns#" xmlns:dc="http://purl.org/dc/elements/1.1/" xmlns:rdf="http://www.w3.org/1999/02/22-rdf-syntax-ns#">
<metadata>
<rdf:RDF>
<cc:Work rdf:about="">
<dc:format>image/svg+xml</dc:format>
<dc:type rdf:resource="http://purl.org/dc/dcmitype/StillImage"/>
<dc:title/>
</cc:Work>
</rdf:RDF>
</metadata>
<rect width="16" height="16" fill="none" visibility="hidden"/>
<path transform="translate(1,1)" d="m1 6 1.5 8h5l1.5-8zm1.18 1h5.63l-0.37 2h-4.89m1.45-4c0-2 1-3 3-3h1v-1h-1c-1 0-1-1 0-1h3c1 0 1 1 0 1h-1v1h4v1.5h-6c-1.0847-0.00889-1.5 0.48248-1.5 1.5z" fill="#734a08"/>
</svg>

<?xml version="1.0" encoding="UTF-8" standalone="no"?>
<svg
   xmlns:dc="http://purl.org/dc/elements/1.1/"
   xmlns:cc="http://creativecommons.org/ns#"
   xmlns:rdf="http://www.w3.org/1999/02/22-rdf-syntax-ns#"
   xmlns:svg="http://www.w3.org/2000/svg"
   xmlns="http://www.w3.org/2000/svg"
   version="1.1"
   width="16"
   height="16"
   viewBox="0 0 16 16"
   id="svg2">
   <metadata id="metadata8">
    <rdf:RDF>
      <cc:Work rdf:about="">
        <dc:format>image/svg+xml</dc:format>
        <dc:type rdf:resource="http://purl.org/dc/dcmitype/StillImage"/>
        <dc:title/>
      </cc:Work>
    </rdf:RDF>
  </metadata>
  <defs id="defs6"/>
  <rect width="16" height="16" x="0" y="0" id="canvas" style="fill:none;stroke:none;visibility:hidden"/>
  <path d="m 1,6 1.5,8 5,0 L 9,6 z M 2.18,7 7.81,7 7.44,9 2.55,9 M 4,5 C 4,3 5,2 7,2 L 8,2 8,1 7,1 C 6,1 6,0 7,0 l 3,0 c 1,0 1,1 0,1 l -1,0 0,1 4,0 0,1.5 -6,0 C 5.91526,3.49111 5.5,3.9824765 5.5,5 z" id="drinking-water" style="fill:#734a08;fill-opacity:1" transform="translate(1,1)"/>
</svg>
